X:1
T:The Washington Post
C:John Philip Sousa
M:6/8
L:1/8
Q:3/8=116
K:C
G G G | C2 E G2 c | e3 c3 | A2 G E2 C | G6 | c2 e c2 A | G2 E C2 G | A2 c e2 g | c6 |]
